X: 22
T:
C: Armand Aromin
H: 1/30/05
M: 4/4
L: 1/8
R: Hornpipe
K: Dmaj
(3ABc || dcde fefe | dBGB A2 (3ABc | dcde fefg | afdf e2 fg |
a2 ab aggf | feef g2 fe | d2 Ad fedc |1 dAFA D2 (3ABc :|2 d2 dc d2 |]
